16x16/apps/moe-era.svg

<svg width="16" height="16" version="1.1" xmlns="http://www.w3.org/2000/svg">
 <circle cx="8" cy="8" r="8" style="fill:#e4accb"/>
 <circle cx="8" cy="8" r="6" style="fill:#f4f4f7"/>
 <path d="m0 11h3v-3l1 1 1-1v3h3l-1-6-2-1-1 1-1-1-2 1z" style="fill:#f48b97"/>
 <path d="m8.5 5a3.5 3 0 0 0-3.5 3 3.5 3 0 0 0 3.5 3 3.5 3 0 0 0 3.5-3 3.5 3 0 0 0-3.5-3zm0 2a1.5 1 0 0 1 1.5 1 1.5 1 0 0 1-1.5 1 1.5 1 0 0 1-1.5-1 1.5 1 0 0 1 1.5-1z" style="fill:#a9cc37"/>
 <path d="m9 2v3l1-3zm-2 1 1 2v-2zm4 0-1 2 2-1z" style="fill:#a9cc37"/>
 <path d="m10 12 1-8 5-1v3h-3v1h2v2h-2v1h2l1 2z" style="fill:#90ccf2"/>
</svg>

<svg width="16" height="16" xmlns="http://www.w3.org/2000/svg"><circle cx="8" cy="8" r="8" style="fill:#e4accb"/><circle cx="8" cy="8" r="6" style="fill:#f4f4f7"/><path d="M0 11h3V8l1 1 1-1v3h3L7 5 5 4 4 5 3 4 1 5z" style="fill:#f48b97"/><path d="M8.5 5A3.5 3 0 0 0 5 8a3.5 3 0 0 0 3.5 3A3.5 3 0 0 0 12 8a3.5 3 0 0 0-3.5-3zm0 2A1.5 1 0 0 1 10 8a1.5 1 0 0 1-1.5 1A1.5 1 0 0 1 7 8a1.5 1 0 0 1 1.5-1zM9 2v3l1-3zM7 3l1 2V3zm4 0-1 2 2-1z" style="fill:#a9cc37"/><path d="m10 12 1-8 5-1v3h-3v1h2v2h-2v1h2l1 2z" style="fill:#90ccf2"/></svg>
